!!!OTL: MEISTER MUELLER THUT MAL SEHEN
!!!ARE: Europa, Mitteleuropa, Deutschland, Marburg
!!!SCT: E0108B
!!!YEM: Copyright 1995, estate of Helmut Schaffrath.
**kern
*ICvox
*Ivox
*M4/4
*k[b-]
*F:
{8f
8g
=1
4a
4a
4a
8g
8a
=2
4b-
4g
4r}
{8g
8a
=3
4b-
4b-
8b-
8dd
8cc
8b-
=4
4cc
4a
4r}
{8f
8a
=5
4.cc
8cc
8cc
8cc
8ff
8ff
=6
2dd
8r}
{8ff
8ee
8dd
=7
4cc
8a
8cc
4cc
8b-
8cc
=8
2a
4r}
==
!!!AGN: erzaehlendes Volks - Lied, Sage, Liebe, Leid, Tod, Ballade ?
!!!ONB: ESAC (Essen Associative Code) Database: ERK1
!!!AMT: simple quadruple
!!!AIN: vox
!!!EED: Helmut Schaffrath
!!!EEV: 1.0
*-
